toolkits/global/packages/global-context/img/icons/search.svg

<svg height="24" viewBox="0 0 24 24" width="24" xmlns="http://www.w3.org/2000/svg"><path d="m19.4804498 18.4545959c.2828508.2828507.289905.7491954.0066232 1.0324771-.274997.274997-.7455375.2803165-1.0324771-.0066232l-3.0442624-3.0442624c-1.2037645.9778033-2.7386141 1.5638126-4.4103335 1.5638126-3.86599325 0-7-3.1340068-7-7 0-3.86599325 3.13400675-7 7-7 3.8659932 0 7 3.13400675 7 7 0 1.6717194-.5860093 3.206569-1.5638126 4.4103335zm-8.4804498-1.4545959c3.3137085 0 6-2.6862915 6-6s-2.6862915-6-6-6-6 2.6862915-6 6 2.6862915 6 6 6z" fill="#666" fill-rule="evenodd"/></svg>

<?xml version="1.0" encoding="UTF-8"?>
<svg width="24px" height="24px" viewBox="0 0 24 24" version="1.1" xmlns="http://www.w3.org/2000/svg" xmlns:xlink="http://www.w3.org/1999/xlink">
    <!-- Generator: Sketch 63.1 (92452) - https://sketch.com -->
    <title>icon-icon / search</title>
    <desc>Created with Sketch.</desc>
    <g id="icon-/-search" stroke="none" stroke-width="1" fill="none" fill-rule="evenodd">
        <path d="M19.4804498,18.4545959 C19.7633006,18.7374466 19.7703548,19.2037913 19.487073,19.487073 C19.212076,19.76207 18.7415355,19.7673895 18.4545959,19.4804498 L15.4103335,16.4361874 C14.206569,17.4139907 12.6717194,18 11,18 C7.13400675,18 4,14.8659932 4,11 C4,7.13400675 7.13400675,4 11,4 C14.8659932,4 18,7.13400675 18,11 C18,12.6717194 17.4139907,14.206569 16.4361874,15.4103335 L19.4804498,18.4545959 Z M11,17 C14.3137085,17 17,14.3137085 17,11 C17,7.6862915 14.3137085,5 11,5 C7.6862915,5 5,7.6862915 5,11 C5,14.3137085 7.6862915,17 11,17 Z" id="search" fill="#666666"></path>
    </g>
</svg>
